assets/external-logos/storybook-logo.svg

<svg height="319" preserveAspectRatio="xMidYMid" viewBox="0 0 256 319" width="256" xmlns="http://www.w3.org/2000/svg" xmlns:xlink="http://www.w3.org/1999/xlink"><defs><path id="a" d="m9.87245893 293.324145-9.86099779-262.7509283c-.3256701-8.6776325 6.32802782-16.0318249 14.99485846-16.5735018l223.4880694-13.96800436c8.821799-.55136241 16.420248 6.15315109 16.971611 14.97495016.020773.3323713.031167.6653101.031167.99833v286.3136053c0 8.839012-7.165435 16.004447-16.004448 16.004447-.239453 0-.478875-.005374-.718087-.016117l-213.6270715-9.594673c-8.3199296-.373675-14.9627611-7.06565-15.27510157-15.388108z"/><mask id="b" fill="#fff"><use fill="#fff" xlink:href="#a"/></mask></defs><use fill="#ff4785" xlink:href="#a"/><path d="m188.665358 39.126973 1.526545-36.71548766 30.691632-2.41148534 1.32222 37.8634126c.046016 1.317734-.984915 2.423272-2.302649 2.4692883-.564237.0197036-1.117199-.1611913-1.560697-.5105633l-11.83568-9.323726-14.013155 10.6298328c-1.050497.7968662-2.548081.5912577-3.344947-.4592396-.335442-.4422072-.506327-.9874722-.483269-1.5420318zm-39.251655 80.853336c0 6.226666 41.941975 3.242387 47.572316-1.131416 0-42.4021104-22.751978-64.6837519-64.414689-64.6837519-41.6627118 0-65.0056495 22.6283131-65.0056495 56.5707999 0 59.116499 79.7796605 60.247915 79.7796605 92.493278 0 9.05133-4.432203 14.425558-14.18305 14.425558-12.70565 0-17.728814-6.488863-17.137853-28.551479 0-4.786197-48.4587575-6.278336-49.9361587 0-3.7620647 53.465572 29.5480226 68.887096 67.6649717 68.887096 36.935028 0 65.89209-19.687271 65.89209-55.326883 0-63.359309-80.961582-61.662185-80.961582-93.058985 0-12.7284338 9.455368-14.425558 15.069492-14.425558 5.909604 0 16.546892 1.0415999 15.660452 24.801341z" fill="#fff" mask="url(#b)"/></svg>

<?xml version="1.0" encoding="UTF-8"?>
<svg width="256px" height="319px" viewBox="0 0 256 319" version="1.1" xmlns="http://www.w3.org/2000/svg" xmlns:xlink="http://www.w3.org/1999/xlink" preserveAspectRatio="xMidYMid">
    <defs>
        <path d="M9.87245893,293.324145 L0.0114611411,30.5732167 C-0.314208957,21.8955842 6.33948896,14.5413918 15.0063196,13.9997149 L238.494389,0.0317105427 C247.316188,-0.519651867 254.914637,6.18486163 255.466,15.0066607 C255.486773,15.339032 255.497167,15.6719708 255.497167,16.0049907 L255.497167,302.318596 C255.497167,311.157608 248.331732,318.323043 239.492719,318.323043 C239.253266,318.323043 239.013844,318.317669 238.774632,318.306926 L25.1475605,308.712253 C16.8276309,308.338578 10.1847994,301.646603 9.87245893,293.324145 L9.87245893,293.324145 Z" id="path-1"></path>
    </defs>
		<g>
				<mask id="mask-2" fill="white">
						<use xlink:href="#path-1"></use>
				</mask>
				<use fill="#FF4785" fill-rule="nonzero" xlink:href="#path-1"></use>
				<path d="M188.665358,39.126973 L190.191903,2.41148534 L220.883535,0 L222.205755,37.8634126 C222.251771,39.1811466 221.22084,40.2866846 219.903106,40.3327009 C219.338869,40.3524045 218.785907,40.1715096 218.342409,39.8221376 L206.506729,30.4984116 L192.493574,41.1282444 C191.443077,41.9251106 189.945493,41.7195021 189.148627,40.6690048 C188.813185,40.2267976 188.6423,39.6815326 188.665358,39.126973 Z M149.413703,119.980309 C149.413703,126.206975 191.355678,123.222696 196.986019,118.848893 C196.986019,76.4467826 174.234041,54.1651411 132.57133,54.1651411 C90.9086182,54.1651411 67.5656805,76.7934542 67.5656805,110.735941 C67.5656805,169.85244 147.345341,170.983856 147.345341,203.229219 C147.345341,212.280549 142.913138,217.654777 133.162291,217.654777 C120.456641,217.654777 115.433477,211.165914 116.024438,189.103298 C116.024438,184.317101 67.5656805,182.824962 66.0882793,189.103298 C62.3262146,242.56887 95.6363019,257.990394 133.753251,257.990394 C170.688279,257.990394 199.645341,238.303123 199.645341,202.663511 C199.645341,139.304202 118.683759,141.001326 118.683759,109.604526 C118.683759,96.8760922 128.139127,95.178968 133.753251,95.178968 C139.662855,95.178968 150.300143,96.2205679 149.413703,119.980309 Z" fill="#FFFFFF" fill-rule="nonzero" mask="url(#mask-2)"></path>
		</g>
</svg>
